X: 17532
T: Hills Of Tara, The
R: barndance
M: 4/4
K: Gmajor
|:Bc|[d2D2] G2 G2 AB|c2 E2 E2 G2|FGAB c2 A/c/A|e2 d2 dcBc|
d2 G2 G2 AB|c2 E2 E2 G2|FGAB c2 A2|1 A/c/A G2 A2:|2 A/c/A G2 G3||
|:f|g2 gg g2 bg|f2 e2 e2 AB|c2 c2 c/e/c Bc|e2 d2 dcBc|
g2 gg g2 bg|f2 e2 e2 A2|FGAB c2 A2|1 A/c/A G2 G3:|2 A/c/A G2 G2||

